dist/img/sprites/hPerson.svg

<svg width="32" height="32" viewBox="0 0 32 32" fill="none" xmlns="http://www.w3.org/2000/svg">
<g clip-path="url(#clip0_730_5299)">
<path d="M16.0007 0C12.8307 0 9.75075 0.93 7.11074 2.7C4.47074 4.46 2.43074 6.95 1.22074 9.88C0.0007447 12.81 -0.309255 16.01 0.310745 19.12C0.930745 22.23 2.44074 25.07 4.69074 27.31C6.94074 29.56 9.77075 31.07 12.8807 31.69C16.0007 32.31 19.1907 32 22.1207 30.78C25.0507 29.57 27.5407 27.53 29.3007 24.89C31.0607 22.25 32.0007 19.18 32.0007 16C32.0007 11.73 30.3307 7.71 27.3107 4.69C24.2907 1.67 20.2707 0 16.0007 0ZM24.7707 27.3C22.2707 29.24 19.1607 30.31 16.0007 30.31C12.8407 30.31 9.72074 29.24 7.23074 27.3L6.93074 27.06L7.14074 26.74C8.09074 25.26 9.41074 24.02 10.9507 23.18C14.0507 21.49 17.9707 21.49 21.0607 23.18C22.6007 24.03 23.9207 25.26 24.8707 26.74L25.0807 27.06L24.7807 27.3H24.7707ZM16.0007 20.21C14.5407 20.21 13.1607 19.64 12.1307 18.61C11.1007 17.58 10.5307 16.2 10.5307 14.74C10.5307 13.65 10.8507 12.6 11.4507 11.7C12.0507 10.8 12.9007 10.1 13.9107 9.68C14.9207 9.26 16.0107 9.16 17.0707 9.37C18.1407 9.58 19.1007 10.1 19.8707 10.87C20.6407 11.64 21.1607 12.61 21.3707 13.67C21.5807 14.74 21.4707 15.83 21.0607 16.83C20.6407 17.83 19.9507 18.68 19.0407 19.29C18.1407 19.89 17.0907 20.21 16.0007 20.21ZM30.1507 18.16C29.7307 20.89 28.5407 23.43 26.7007 25.5L26.3407 25.9L26.0407 25.46C24.6807 23.48 22.7707 21.96 20.5407 21.07L19.8607 20.8L20.4307 20.35C21.6107 19.42 22.4507 18.18 22.8707 16.74C23.2907 15.3 23.2507 13.8 22.7607 12.38C22.2707 10.97 21.3707 9.76 20.1507 8.89C17.7107 7.15 14.2907 7.15 11.8507 8.89C10.6307 9.76 9.73074 10.96 9.24074 12.38C8.75074 13.79 8.71074 15.3 9.13074 16.74C9.55074 18.18 10.3907 19.42 11.5707 20.35L12.1407 20.8L11.4607 21.07C9.23074 21.96 7.32074 23.48 5.96074 25.46L5.66074 25.9L5.30075 25.5C3.46074 23.43 2.27074 20.89 1.85074 18.16C1.43074 15.43 1.81074 12.65 2.94074 10.12C4.07074 7.6 5.90075 5.47 8.22075 3.97C10.5407 2.47 13.2307 1.67 16.0007 1.67C18.7707 1.67 21.4607 2.46 23.7807 3.97C26.1007 5.47 27.9307 7.6 29.0607 10.12C30.1907 12.64 30.5707 15.42 30.1507 18.16Z" fill="#4B8125"/>
</g>
<defs>
<clipPath id="clip0_730_5299">
<rect width="32" height="32" fill="white"/>
</clipPath>
</defs>
</svg>

<svg width="32" height="32" viewBox="0 0 32 32" fill="none" xmlns="http://www.w3.org/2000/svg"><g clip-path="url(#clip0_730_5299)"><path d="M16 0c-3.17 0-6.25.93-8.89 2.7a15.906 15.906 0 00-5.89 7.18 15.89 15.89 0 00-.91 9.24c.62 3.11 2.13 5.95 4.38 8.19 2.25 2.25 5.08 3.76 8.19 4.38 3.12.62 6.31.31 9.24-.91 2.93-1.21 5.42-3.25 7.18-5.89C31.06 22.25 32 19.18 32 16c0-4.27-1.67-8.29-4.69-11.31A15.902 15.902 0 0016 0zm8.77 27.3A14.37 14.37 0 0116 30.31c-3.16 0-6.28-1.07-8.77-3.01l-.3-.24.21-.32c.95-1.48 2.27-2.72 3.81-3.56 3.1-1.69 7.02-1.69 10.11 0 1.54.85 2.86 2.08 3.81 3.56l.21.32-.3.24h-.01zM16 20.21c-1.46 0-2.84-.57-3.87-1.6a5.447 5.447 0 01-1.6-3.87 5.47 5.47 0 019.34-3.87c.77.77 1.29 1.74 1.5 2.8.21 1.07.1 2.16-.31 3.16a5.51 5.51 0 01-2.02 2.46c-.9.6-1.95.92-3.04.92zm14.15-2.05c-.42 2.73-1.61 5.27-3.45 7.34l-.36.4-.3-.44c-1.36-1.98-3.27-3.5-5.5-4.39l-.68-.27.57-.45a7.086 7.086 0 002.44-3.61c.42-1.44.38-2.94-.11-4.36a7.142 7.142 0 00-2.61-3.49c-2.44-1.74-5.86-1.74-8.3 0a7.098 7.098 0 00-2.61 3.49 7.135 7.135 0 00-.11 4.36 7.086 7.086 0 002.44 3.61l.57.45-.68.27c-2.23.89-4.14 2.41-5.5 4.39l-.3.44-.36-.4a14.296 14.296 0 01-3.45-7.34c-.42-2.73-.04-5.51 1.09-8.04C4.07 7.6 5.9 5.47 8.22 3.97c2.32-1.5 5.01-2.3 7.78-2.3 2.77 0 5.46.79 7.78 2.3a14.31 14.31 0 016.37 14.19z" fill="#4B8125"/></g><defs><clipPath id="clip0_730_5299"><path fill="#fff" d="M0 0h32v32H0z"/></clipPath></defs></svg>
